img/CD_icon.svg

<svg fill="none" height="28" viewBox="0 0 27 28" width="27" xmlns="http://www.w3.org/2000/svg" xmlns:xlink="http://www.w3.org/1999/xlink"><mask id="a" height="28" maskUnits="userSpaceOnUse" width="27" x="0" y="0"><path d="m0 .5h27v27h-27z" fill="#d9d9d9"/></mask><g mask="url(#a)"><path d="m6.75 24.125c-.84375 0-1.67812-.2062-2.50313-.6187-.82499-.4125-1.49062-.9563-1.99687-1.6313.4875 0 .98438-.1922 1.49063-.5765.50625-.3844.75937-.9422.75937-1.6735 0-.9375.32812-1.7344.98438-2.3906.65624-.6563 1.45312-.9844 2.39062-.9844s1.73438.3281 2.3906.9844c.6563.6562.9844 1.4531.9844 2.3906 0 1.2375-.4406 2.2969-1.32187 3.1781-.88125.8813-1.94063 1.3219-3.17813 1.3219zm0-2.25c.61875 0 1.14844-.2203 1.58906-.6609.44063-.4406.66094-.9703.66094-1.5891 0-.3187-.10781-.5859-.32344-.8015-.21562-.2157-.48281-.3235-.80156-.3235s-.58594.1078-.80156.3235c-.21563.2156-.32344.4828-.32344.8015 0 .4313-.05156.825-.15469 1.1813-.10312.3562-.23906.6937-.40781 1.0125.09375.0375.1875.0562.28125.0562zm6.4688-4.5-3.0938-3.0937 10.0688-10.06878c.2062-.20625.464-.31406.7734-.32344.3094-.00937.5766.09844.8016.32344l1.5187 1.51875c.225.225.3375.4875.3375.7875s-.1125.5625-.3375.7875z" fill="#4a86ff"/></g></svg>

<svg width="27" height="28" viewBox="0 0 27 28" fill="none" xmlns="http://www.w3.org/2000/svg">
<mask id="mask0_267_146" style="mask-type:alpha" maskUnits="userSpaceOnUse" x="0" y="0" width="27" height="28">
<rect y="0.5" width="27" height="27" fill="#D9D9D9"/>
</mask>
<g mask="url(#mask0_267_146)">
<path d="M6.75 24.125C5.90625 24.125 5.07188 23.9188 4.24687 23.5063C3.42188 23.0938 2.75625 22.55 2.25 21.875C2.7375 21.875 3.23438 21.6828 3.74063 21.2985C4.24688 20.9141 4.5 20.3563 4.5 19.625C4.5 18.6875 4.82812 17.8906 5.48438 17.2344C6.14062 16.5781 6.9375 16.25 7.875 16.25C8.8125 16.25 9.60938 16.5781 10.2656 17.2344C10.9219 17.8906 11.25 18.6875 11.25 19.625C11.25 20.8625 10.8094 21.9219 9.92813 22.8031C9.04688 23.6844 7.9875 24.125 6.75 24.125ZM6.75 21.875C7.36875 21.875 7.89844 21.6547 8.33906 21.2141C8.77969 20.7735 9 20.2438 9 19.625C9 19.3063 8.89219 19.0391 8.67656 18.8235C8.46094 18.6078 8.19375 18.5 7.875 18.5C7.55625 18.5 7.28906 18.6078 7.07344 18.8235C6.85781 19.0391 6.75 19.3063 6.75 19.625C6.75 20.0563 6.69844 20.45 6.59531 20.8063C6.49219 21.1625 6.35625 21.5 6.1875 21.8188C6.28125 21.8563 6.375 21.875 6.46875 21.875H6.75ZM13.2188 17.375L10.125 14.2813L20.1938 4.21252C20.4 4.00627 20.6578 3.89846 20.9672 3.88908C21.2766 3.87971 21.5438 3.98752 21.7688 4.21252L23.2875 5.73127C23.5125 5.95627 23.625 6.21877 23.625 6.51877C23.625 6.81877 23.5125 7.08127 23.2875 7.30627L13.2188 17.375Z" fill="#4A86FF"/>
</g>
</svg>
